X: 5477
T: Bunclody, The
R: slide
M: 12/8
K: Dmajor
|:d2 d dcB A2 G E2 F|G3 EFG B2 A F2 A|
d2 d dcB A2 G E2 F|1 GAG F2 E D3 D3:|2 GAG F2 E D3 DEG||
|:F2 A ABA E2 B BAB|cBc ABc dcB A2 G|
F2 A A^GA =G2 B B2 =c|1 cBc ABc dfe d2 A:|2 cBc ABc dfe d3||

